Sources/FrostedUI/Resources/Icons.xcassets/cubeFilled24.imageset/cube-filled-24.svg

<svg
  width="24"
  height="24"
  viewBox="0 0 24 24"
  fill="none"
  xmlns="http://www.w3.org/2000/svg"
  data-fui-icon="true"
>
  <path
    d="M11.2188 2.73438C11.6875 2.57812 12.2734 2.57812 12.7422 2.73438L20.5547 5.70312C21.4141 6.01562 22 6.83594 22 7.77344V17.2656C22 18.2031 21.4141 18.9844 20.5547 19.3359L12.7422 22.3047C12.2734 22.4609 11.6875 22.4609 11.2188 22.3047L3.40625 19.3359C2.54688 18.9844 2 18.2031 2 17.2656V7.77344C2 6.83594 2.54688 6.01562 3.40625 5.70312L11.2188 2.73438ZM12.0781 4.49219C12.0391 4.49219 11.9219 4.49219 11.8828 4.49219L4.46094 7.30469L12 10.2734L19.5 7.30469L12.0781 4.49219ZM4.07031 17.5781L11.0625 20.2344V11.9141L3.875 9.10156V17.2656C3.875 17.4219 3.95312 17.5391 4.07031 17.5781ZM12.9375 20.2344L19.8906 17.5781C20.0078 17.5391 20.125 17.4219 20.125 17.2656V9.10156L12.9375 11.9141V20.2344Z"
    fill="currentColor"
  />
</svg>

<svg xmlns="http://www.w3.org/2000/svg" width="24" height="24" fill="none" data-fui-icon="true" viewBox="0 0 24 24"><path fill="currentColor" d="M11.219 2.734a2.53 2.53 0 0 1 1.523 0l7.813 2.97A2.2 2.2 0 0 1 22 7.773v9.492c0 .937-.586 1.718-1.445 2.07l-7.813 2.969a2.54 2.54 0 0 1-1.523 0l-7.813-2.97C2.546 18.986 2 18.204 2 17.266V7.774c0-.937.547-1.757 1.406-2.07zm.86 1.758h-.196L4.46 7.305 12 10.273l7.5-2.968zM4.07 17.578l6.993 2.656v-8.32L3.875 9.102v8.164c0 .156.078.273.195.312m8.868 2.656 6.953-2.656a.34.34 0 0 0 .234-.312V9.102l-7.187 2.812z"/></svg>
